public/new/svg21.svg

<svg fill="none" height="28" viewBox="0 0 28 28" width="28" xmlns="http://www.w3.org/2000/svg"><path d="m9.5 5c-.82 0-1.5.67-1.5 1.5v2h1v-2c0-.27.23-.5.5-.5h4.5v16h-2v1h5v-1h-2v-16h4.5c.28 0 .5.22.5.5v2h1v-2c0-.83-.67-1.5-1.5-1.5z" fill="#77787e"/></svg>

<svg width="28" height="28" viewBox="0 0 28 28" fill="none" xmlns="http://www.w3.org/2000/svg">
<path d="M9.5 5C8.68 5 8 5.67 8 6.5V8.5H9V6.5C9 6.23 9.23 6 9.5 6H14V22H12V23H17V22H15V6H19.5C19.78 6 20 6.22 20 6.5V8.5H21V6.5C21 5.67 20.33 5 19.5 5H9.5Z" fill="#77787E"/>
</svg>
